!! 00000] TT[WS
!!!OTL: Jian shanyao diao
!!!ARE: Asia, China, Shanxi Dingxiang
!! Ethnic Group: Han
!! WI, 311
!!!SCT: J0376
!!!YEM: Copyright 1995, estate of Helmut Schaffrath.
**kern
*ICvox
*Ivox
*M2/4
*k[b-e-]
*B-:
{8dd
8ff
8dd
16dd
16cc
=1
8b-
8ff
8dd
16dd
16cc
=2
8b-
8f
8cc
16cc
16dd
=3
8cc
16cc
16f
4b-}
=4
{8b-
16g
16f
8cc
16cc
16dd
=5
8cc
16cc
16f
4b-
=6
8g
16g
16b-
8cc
16cc
16dd
=7
8ff
8g
4f}
=8
{8a
4.r
=9
16g
16g
16g
16b-
8cc
8f
=10
8b-
16b-
16g
4f}
==
!!!AGN: Xiaodiao, Jianshanyaodiao. Xinminge, Xuanchuan
!! Neue Text. Politische Liede
!!!ONB: ESAC (Essen Associative Code) Database: CHINA
!!!AMT: simple duple
!!!AIN: vox
!!!EED: Helmut Schaffrath
!!!EEV: 1.0
*-
